X: 37356
T: Slängpols Från Torp
R: mazurka
M: 3/4
K: Gmajor
|:dc BG Bc|dc c<e A2|ag fd fa|ag g<b (d2|
d)c Bg Bd|dc c<e A2|ag fd ef|g2 g3 z:|
|:ba gB dg|gf f<a (a2|a)g fd fa|ag g<b (b2|
b)a gB dG|gf f<a (a2|a)g fd ef|g2 g3 z:|

